docs/inc/icons/mail.svg

<svg height="16" viewBox="0 0 14 16" width="14" xmlns="http://www.w3.org/2000/svg"><path d="m0 4v8c0 .55.45 1 1 1h12c.55 0 1-.45 1-1v-8c0-.55-.45-1-1-1h-12c-.55 0-1 .45-1 1zm13 0-6 5-6-5zm-12 1.5 4 3-4 3zm1 6.5 3.5-3 1.5 1.5 1.5-1.5 3.5 3zm11-.5-4-3 4-3z" fill-rule="evenodd"/></svg>

<svg xmlns="http://www.w3.org/2000/svg" width="14" height="16" viewBox="0 0 14 16"><path fill-rule="evenodd" d="M0 4v8c0 .55.45 1 1 1h12c.55 0 1-.45 1-1V4c0-.55-.45-1-1-1H1c-.55 0-1 .45-1 1zm13 0L7 9 1 4h12zM1 5.5l4 3-4 3v-6zM2 12l3.5-3L7 10.5 8.5 9l3.5 3H2zm11-.5l-4-3 4-3v6z"/></svg>
